icons/circle-times.svg

<svg width="24" height="24" viewBox="0 0 24 24" fill="none" xmlns="http://www.w3.org/2000/svg">
<path fill-rule="evenodd" clip-rule="evenodd" d="M5.66001 6.72068C4.46742 8.1513 3.74994 9.99186 3.74994 12C3.74994 13.9826 4.44929 15.8019 5.61475 17.2245L10.8893 11.95L5.66001 6.72068ZM6.72068 5.66002L11.95 10.8893L17.2245 5.61481C15.8018 4.44935 13.9825 3.75 11.9999 3.75C9.99183 3.75 8.15129 4.46746 6.72068 5.66002ZM11.95 13.0106L6.66634 18.2943C8.10454 19.5142 9.96631 20.25 11.9999 20.25C14.0081 20.25 15.8486 19.5325 17.2793 18.3399L11.95 13.0106ZM18.3399 17.2793L13.0106 11.95L18.2942 6.6664C19.5141 8.1046 20.2499 9.96637 20.2499 12C20.2499 14.0081 19.5325 15.8486 18.3399 17.2793ZM2.24994 12C2.24994 6.61522 6.61516 2.25 11.9999 2.25C17.3847 2.25 21.7499 6.61522 21.7499 12C21.7499 17.3848 17.3847 21.75 11.9999 21.75C6.61516 21.75 2.24994 17.3848 2.24994 12Z" fill="black"/>
</svg>

<svg xmlns="http://www.w3.org/2000/svg" fill="none" viewBox="0 0 24 24">
  <path fill="#000" fill-rule="evenodd" d="M5.66 6.72A8.217 8.217 0 0 0 3.75 12c0 1.983.7 3.802 1.865 5.224l5.274-5.274L5.66 6.72Zm1.06-1.06 5.23 5.23 5.274-5.275A8.216 8.216 0 0 0 12 3.75a8.217 8.217 0 0 0-5.28 1.91Zm5.23 7.35-5.284 5.284A8.217 8.217 0 0 0 12 20.25a8.217 8.217 0 0 0 5.28-1.91l-5.33-5.33Zm6.39 4.27-5.33-5.33 5.284-5.284A8.217 8.217 0 0 1 20.25 12a8.217 8.217 0 0 1-1.91 5.28ZM2.25 12c0-5.385 4.365-9.75 9.75-9.75s9.75 4.365 9.75 9.75-4.365 9.75-9.75 9.75S2.25 17.385 2.25 12Z" clip-rule="evenodd"/>
</svg>
